build/images/g2.svg

<svg width="138" height="138" viewBox="0 0 138 138" fill="none" xmlns="http://www.w3.org/2000/svg">
<circle cx="69" cy="69" r="69" fill="#76BD5E"/>
<path d="M96.6215 79.5C96.6215 86.8995 93.6821 93.996 88.4498 99.2283C83.2175 104.461 76.1211 107.4 68.7215 107.4C61.322 107.4 54.2255 104.461 48.9933 99.2283C43.761 93.996 40.8215 86.8995 40.8215 79.5C40.8244 74.0633 42.4163 68.746 45.4015 64.2022C48.3866 59.6583 52.6348 56.0861 57.6235 53.925L58.7147 54.7744L63.5135 58.5006C58.8161 59.6597 54.6411 62.3563 51.6527 66.1614C48.6643 69.9665 47.0342 74.6617 47.0215 79.5C47.0215 91.466 56.7555 101.2 68.7215 101.2C80.6875 101.2 90.4215 91.466 90.4215 79.5C90.4089 74.6617 88.7787 69.9665 85.7903 66.1614C82.802 62.3563 78.627 59.6597 73.9295 58.5006L79.8195 53.925C84.8082 56.0861 89.0564 59.6583 92.0416 64.2022C95.0268 68.746 96.6187 74.0633 96.6215 79.5ZM68.7215 54.7L84.2215 42.641L78.0215 33H59.4215L53.2215 42.641L62.5215 49.8764L68.7215 54.7Z" fill="white"/>
</svg>

<svg width="138" height="138" fill="none" xmlns="http://www.w3.org/2000/svg"><circle cx="69" cy="69" r="69" fill="#76BD5E"/><path d="M96.621 79.5a27.9 27.9 0 11-55.8 0 27.888 27.888 0 0116.803-25.575l1.09.85 4.8 3.726A21.688 21.688 0 0047.022 79.5c0 11.966 9.733 21.7 21.7 21.7 11.966 0 21.7-9.734 21.7-21.7a21.687 21.687 0 00-16.492-21l5.89-4.575A27.887 27.887 0 0196.621 79.5zm-27.9-24.8l15.5-12.059-6.2-9.641h-18.6l-6.2 9.641 9.3 7.235 6.2 4.824z" fill="#fff"/></svg>
